_src/static/img/icon/mail.svg

<svg width="34" height="25" viewBox="0 0 34 25" fill="none" xmlns="http://www.w3.org/2000/svg">
<path d="M16.1189 10.7168C16.3724 10.8921 16.6731 10.9859 16.981 10.9859C17.289 10.9859 17.5897 10.8921 17.8432 10.7168L32.281 0.766683C31.5742 0.257488 30.723 -0.0111192 29.8525 0.000352756H4.10962C3.26528 0.000743161 2.44198 0.264316 1.75391 0.754519L16.1189 10.7168Z" fill="#1B3ACD"/>
<path d="M19.2221 12.7238C18.5621 13.1756 17.7812 13.4174 16.9818 13.4174C16.1823 13.4174 15.4015 13.1756 14.7414 12.7238L0.267143 2.68848C0.0937333 3.14302 0.00324853 3.62507 0 4.11166V20.2289C0.00321427 21.3172 0.437047 22.3599 1.2064 23.1283C1.97576 23.8967 3.01786 24.3282 4.10429 24.3282H29.9079C30.9922 24.325 32.0312 23.8921 32.7979 23.124C33.5646 22.3559 33.9968 21.3151 34 20.2289V4.11166C33.9978 3.63399 33.9114 3.16045 33.745 2.7128L19.2221 12.7238Z" fill="#1B3ACD"/>
</svg>

<svg width="34" height="25" fill="none" xmlns="http://www.w3.org/2000/svg"><path d="M16.119 10.717a1.516 1.516 0 001.724 0L32.281.767A4.063 4.063 0 0029.853 0H4.11c-.845 0-1.668.264-2.356.755l14.365 9.962z" fill="#1B3ACD"/><path d="M19.222 12.724a3.966 3.966 0 01-4.48 0L.266 2.688A4.069 4.069 0 000 4.112v16.117a4.115 4.115 0 001.206 2.9 4.1 4.1 0 002.898 1.2h25.804a4.1 4.1 0 002.89-1.205A4.115 4.115 0 0034 20.229V4.112a4.069 4.069 0 00-.255-1.4L19.222 12.725z" fill="#1B3ACD"/></svg>
